icon-themes/sifr_svg/cmd/sc_redactedexportblack.svg

<svg viewBox="0 0 16 16" xmlns="http://www.w3.org/2000/svg"><path d="m1 1v14h6v-2h-4v-10h6v3h3v3h2v-3-1l-4-4zm3 3v2h3v-2zm4 3v2h3v-2zm-2.5 2a1.5 1.5 0 0 0 -1.5 1.5 1.5 1.5 0 0 0 1.5 1.5 1.5 1.5 0 0 0 1.5-1.5 1.5 1.5 0 0 0 -1.5-1.5zm5.5 1v1c0 .2653.0931.53058.28125.71875l.28125.28125h-3.5625v2h3.5625l-.28125.28125c-.18811.18818-.28129.45344-.28125.71875v1h1c.26529 0 .53057-.09304.71875-.28125l2-2 .28125-.28125v-.875l-.28125-.28125-2-2c-.18817-.18814-.446401-.28125-.71875-.28125z" fill="#555753"/></svg>

<svg viewBox="0 0 16 16" xmlns="http://www.w3.org/2000/svg">
  <path
     style="fill:#555753"
     d="M 1 1 L 1 15 L 7 15 L 7 13 L 3 13 L 3 3 L 9 3 L 9 6 L 12 6 L 12 9 L 14 9 L 14 6 L 14 5 L 10 1 L 1 1 z M 4 4 L 4 6 L 7 6 L 7 4 L 4 4 z M 8 7 L 8 9 L 11 9 L 11 7 L 8 7 z M 5.5 9 A 1.5 1.5 0 0 0 4 10.5 A 1.5 1.5 0 0 0 5.5 12 A 1.5 1.5 0 0 0 7 10.5 A 1.5 1.5 0 0 0 5.5 9 z M 11 10 L 11 11 C 11 11.2653 11.0931 11.53058 11.28125 11.71875 L 11.5625 12 L 8 12 L 8 14 L 11.5625 14 L 11.28125 14.28125 C 11.09314 14.46943 10.99996 14.73469 11 15 L 11 16 L 12 16 C 12.26529 16 12.53057 15.90696 12.71875 15.71875 L 14.71875 13.71875 L 15 13.4375 L 15 12.5625 L 14.71875 12.28125 L 12.71875 10.28125 C 12.53058 10.09311 12.272349 10 12 10 L 11 10 z "
     />
</svg>
